!!!OTL@@DE: Vive la Compagneia
!!!ODT: 1820
!!!OMD: M&auml;ssig geschwind
!!!LYR: Volkslied des 18. Jahrhunderts
!!!LDT: <1800
!!!OCL: Erk, Ludwig
!!!GCO: Deutscher Liederschatz, Band 1
**kern	**kern	**kern
*staff3	*staff2	*staff1
*Ipiano	*Ipiano	*Ivox
*clefF4	*clefG2	*clefG2
*k[f#c#g#]	*k[f#c#g#]	*k[f#c#g#]
*A:	*A:	*A:
*M2/4	*M2/4	*M2/4
*MM84	*MM84	*MM84
8E\	8e/	8e/
=1	=1	=1
8E\L	8e/L	8e/
8A\	8a/	8a/
8A\	8a/	8a/
8A\J	8a/J	8a/
=2	=2	=2
8A\L	8a/L	8a/
8F#\J	8f#/J	8f#/
4E\	4e/	4e/
=3	=3	=3
8D/L	8A/ 8f#/L	8f#/
8BB/	8d/ 8f#/	8f#/
8E/	8B/ 8d/ 8g#/	8g#/
8EE/ 8E/J	8B/ 8d/ 8g#/J	8g#/
=4	=4	=4
4AA/ 4E/	4A/ 4c#/ 4a/	4a/
8AA/ 8E/	8A/ 8c#/ 8a/	8a/
8E\	8e/	8e/
=5	=5	=5
8E\L	8e/L	8e/
8A\	8a/	8a/
8A\	8a/	8a/
8A\J	8a/J	8a/
=6	=6	=6
8A\L	8a/L	8a/
8F#\J	8f#/J	8f#/
4E\	4e/	4e/
=7	=7	=7
8D/L	8A/ 8f#/L	8f#/
8BB/	8d/ 8f#/	8f#/
8E/	8B/ 8d/ 8g#/	8g#/
8EE/ 8E/J	8B/ 8d/ 8g#/J	8g#/
=8	=8	=8
4AA/ 4E/	4A/ 4c#/ 4a/	4a/
8AA/ 8E/	8A/ 8c#/ 8a/	8a/
8r	8r	8r
=9	=9	=9
8AA'\L	8e/ 8a/ 8cc#/L	8cc#\
8C#'\	8e/ 8a/ 8cc#/	8cc#\
8E'\	8e/ 8a/ 8cc#/	8cc#\
8A'\J	8e/ 8a/ 8cc#/J	8cc#\
=10	=10	=10
8E/L	8e/ 8g#/ 8b/ 8dd/L	8dd'\
8EE/J	8e/ 8g#/ 8b/ 8dd/J	8dd'\
4EE^/	4e^/ 4g#^/ 4b^/ 4dd^/	4dd^\
=11	=11	=11
8E'/L	8e/ 8g#/ 8b/L	8b\
8BB'/	8e/ 8g#/ 8b/	8b\
8GG#'/	8e/ 8g#/ 8b/	8b\
8EE'/J	8e/ 8g#/ 8b/J	8b\
=12	=12	=12
8C#/L	8e/ 8a/ 8ee/L	8ee'\
8C#/J	8e/ 8a/ 8ee/J	8ee'\
4C#^/	4e^/ 4a^/ 4ee^/	4ee^\
=13	=13	=13
8AA/L	8e/ 8a/ 8cc#/L	8cc#'\
8C#/	8e/ 8a/ 8cc#/	8cc#\
8E/	8e/ 8g#/ 8dd/	8dd\
8EE/J	8d/ 8e/ 8g#/ 8b/J	8b\
=14	=14	=14
4AA/	4d/ 4e/ 4g#/ 4b/	4b\
8AAA/	8c#/ 8e/ 8a/	8a/
==	==	==
*-	*-	*-
!!!ENC: Craig Stuart Sapp
!!!END: 2004/06/28/
!!!EFL: 188/651
